assets/images/icons-social-media.svg

<svg xmlns="http://www.w3.org/2000/svg" width="63" height="16.57" viewBox="0 0 63 16.57"><path d="m5.09 16.53h-3.4V8.26H0V5.41h1.69v-1.7C1.69 1.38 2.65 0 5.37 0h2.26v2.85H6.22c-1.06 0-1.13.4-1.13 1.14v1.42h2.56l-.3 2.85H5.09z" transform="translate(0 0)"/><path d="m37.64 2.15h-2.11L36.79.3a20.42 20.42 0 0 1-2.72 1.06A4.14 4.14 0 0 0 31 0a4.25 4.25 0 0 0-4.26 4.15a4.24 4.24 0 0 0 .11.94A11.85 11.85 0 0 1 18.1.72A9.13 9.13 0 0 0 20.29 6l-2.53.53l3.3 3.47l-3.61.72l4.07 3.21a16.92 16.92 0 0 1-5 .75a13.48 13.48 0 0 0 6.83 1.89c7.79 0 11.78-6.34 11.78-11.93v-.56z" transform="translate(0 0)"/><path d="m48.5 0a2 2 0 1 1-2 2a2 2 0 0 1 2-2m-1.71 5.49h3.42v11h-3.42z" transform="translate(0 0)"/><path d="m52.35 5.49h3.27V7h.05a3.58 3.58 0 0 1 3.23-1.79c3.46 0 4.1 2.29 4.1 5.26v6.06h-3.41v-5.37c0-1.28 0-2.93-1.78-2.93s-2.05 1.4-2.05 2.84v5.46h-3.41z" transform="translate(0 0)"/></svg>

<svg xmlns="http://www.w3.org/2000/svg" width="63" height="16.57" viewBox="0 0 63 16.57"><path d="M5.09,16.53H1.69V8.26H0V5.41H1.69V3.71C1.69,1.38,2.65,0,5.37,0H7.63V2.85H6.22c-1.06,0-1.13.4-1.13,1.14V5.41H7.65l-.3,2.85H5.09Z" transform="translate(0 0)"/><path d="M37.64,2.15H35.53L36.79.3a20.42,20.42,0,0,1-2.72,1.06A4.14,4.14,0,0,0,31,0a4.25,4.25,0,0,0-4.26,4.15,4.24,4.24,0,0,0,.11.94A11.85,11.85,0,0,1,18.1.72,9.13,9.13,0,0,0,20.29,6l-2.53.53L21.06,10l-3.61.72,4.07,3.21a16.92,16.92,0,0,1-5,.75,13.48,13.48,0,0,0,6.83,1.89c7.79,0,11.78-6.34,11.78-11.93V4.08Z" transform="translate(0 0)"/><path d="M48.5,0a2,2,0,1,1-2,2,2,2,0,0,1,2-2M46.79,5.49h3.42v11H46.79Z" transform="translate(0 0)"/><path d="M52.35,5.49h3.27V7h.05A3.58,3.58,0,0,1,58.9,5.21c3.46,0,4.1,2.29,4.1,5.26v6.06H59.59V11.16c0-1.28,0-2.93-1.78-2.93s-2.05,1.4-2.05,2.84v5.46H52.35Z" transform="translate(0 0)"/></svg>
